assets/web icon.svg

<?xml version="1.0" encoding="UTF-8" standalone="no"?> <svg width="48" height="48" viewBox="0 0 48 48" fill="none" xmlns="http://www.w3.org/2000/svg">
<path d="M24 2C19.6488 2 15.3953 3.29028 11.7774 5.70767C8.15957 8.12506 5.33977 11.561 3.67464 15.581C2.00952 19.6009 1.57384 24.0244 2.42272 28.292C3.27159 32.5596 5.36689 36.4796 8.44365 39.5564C11.5204 42.6331 15.4404 44.7284 19.708 45.5773C23.9756 46.4261 28.3991 45.9905 32.419 44.3253C36.439 42.6602 39.8749 39.8404 42.2923 36.2225C44.7097 32.6047 46 28.3512 46 24C45.9934 18.1673 43.6734 12.5753 39.549 8.45096C35.4247 4.32659 29.8327 2.00662 24 2V2ZM42.318 32H36.13C36.6372 29.6995 36.9189 27.3551 36.971 25H43.949C43.8361 27.4132 43.2834 29.7854 42.318 32ZM4.05099 25H11.029C11.0811 27.3551 11.3628 29.6995 11.87 32H5.68199C4.71662 29.7854 4.16388 27.4132 4.05099 25V25ZM5.68199 16H11.87C11.3628 18.3005 11.0811 20.6449 11.029 23H4.05099C4.16388 20.5868 4.71662 18.2146 5.68199 16V16ZM25 14V4.092C28.639 4.692 31.764 8.528 33.512 14H25ZM34.075 16C34.6171 18.2958 34.9188 20.6418 34.975 23H25V16H34.075ZM23 4.092V14H14.488C16.236 8.528 19.361 4.692 23 4.092ZM23 16V23H13.028C13.0842 20.6418 13.3859 18.2958 13.928 16H23ZM13.028 25H23V32H13.925C13.3839 29.7041 13.0832 27.3581 13.028 25V25ZM23 34V43.908C19.361 43.308 16.236 39.472 14.488 34H23ZM25 43.908V34H33.512C31.764 39.472 28.639 43.308 25 43.908ZM25 32V25H34.972C34.9158 27.3582 34.6141 29.7042 34.072 32H25ZM36.971 23C36.9189 20.6449 36.6372 18.3005 36.13 16H42.318C43.2834 18.2146 43.8361 20.5868 43.949 23H36.971ZM41.294 14H35.613C34.7451 10.7415 33.113 7.73679 30.852 5.235C35.2483 6.8496 38.9419 9.95006 41.294 14V14ZM17.148 5.235C14.887 7.73679 13.2549 10.7415 12.387 14H6.70599C9.05805 9.95006 12.7517 6.8496 17.148 5.235V5.235ZM6.70599 34H12.387C13.2549 37.2585 14.887 40.2632 17.148 42.765C12.7517 41.1504 9.05805 38.0499 6.70599 34V34ZM30.852 42.765C33.113 40.2632 34.7451 37.2585 35.613 34H41.294C38.9419 38.0499 35.2483 41.1504 30.852 42.765Z" fill="black"/>
</svg>

<?xml version="1.0" encoding="utf-8"?>
<!-- Generator: Adobe Illustrator 24.3.0, SVG Export Plug-In . SVG Version: 6.00 Build 0)  -->
<svg version="1.1" id="Layer_1" xmlns="http://www.w3.org/2000/svg" xmlns:xlink="http://www.w3.org/1999/xlink" x="0px" y="0px"
	 viewBox="0 0 48 48" style="enable-background:new 0 0 48 48;" xml:space="preserve">
<style type="text/css">
	.st0{stroke:#000000;stroke-miterlimit:10;}
</style>
<path class="st0" d="M24,2c-4.4,0-8.6,1.3-12.2,3.7c-3.6,2.4-6.4,5.9-8.1,9.9C2,19.6,1.6,24,2.4,28.3c0.8,4.3,2.9,8.2,6,11.3
	c3.1,3.1,7,5.2,11.3,6c4.3,0.8,8.7,0.4,12.7-1.3c4-1.7,7.5-4.5,9.9-8.1C44.7,32.6,46,28.4,46,24c0-5.8-2.3-11.4-6.5-15.5
	C35.4,4.3,29.8,2,24,2L24,2z M42.3,32h-6.2c0.5-2.3,0.8-4.6,0.8-7h7C43.8,27.4,43.3,29.8,42.3,32z M4.1,25h7c0.1,2.4,0.3,4.7,0.8,7
	H5.7C4.7,29.8,4.2,27.4,4.1,25L4.1,25z M5.7,16h6.2c-0.5,2.3-0.8,4.6-0.8,7h-7C4.2,20.6,4.7,18.2,5.7,16L5.7,16z M25,14V4.1
	c3.6,0.6,6.8,4.4,8.5,9.9H25z M34.1,16c0.5,2.3,0.8,4.6,0.9,7H25v-7H34.1z M23,4.1V14h-8.5C16.2,8.5,19.4,4.7,23,4.1z M23,16v7H13
	c0.1-2.4,0.4-4.7,0.9-7H23z M13,25h10v7h-9.1C13.4,29.7,13.1,27.4,13,25L13,25z M23,34v9.9c-3.6-0.6-6.8-4.4-8.5-9.9H23z M25,43.9
	V34h8.5C31.8,39.5,28.6,43.3,25,43.9z M25,32v-7h10c-0.1,2.4-0.4,4.7-0.9,7H25z M37,23c-0.1-2.4-0.3-4.7-0.8-7h6.2
	c1,2.2,1.5,4.6,1.6,7H37z M41.3,14h-5.7c-0.9-3.3-2.5-6.3-4.8-8.8C35.2,6.8,38.9,10,41.3,14L41.3,14z M17.1,5.2
	c-2.3,2.5-3.9,5.5-4.8,8.8H6.7C9.1,10,12.8,6.8,17.1,5.2L17.1,5.2z M6.7,34h5.7c0.9,3.3,2.5,6.3,4.8,8.8C12.8,41.2,9.1,38,6.7,34
	L6.7,34z M30.9,42.8c2.3-2.5,3.9-5.5,4.8-8.8h5.7C38.9,38,35.2,41.2,30.9,42.8z"/>
</svg>
